packages/foundations/assets/icons/functional/images/transportation/boat_14_inverted.svg

<svg width="14" height="14" viewBox="0 0 14 14" fill="none" xmlns="http://www.w3.org/2000/svg">
<g clip-path="url(#clip0_2214_6678)">
<path fill-rule="evenodd" clip-rule="evenodd" d="M10.7154 9.27248C10.9087 9.47142 11.0477 9.60491 11.1326 9.67297C11.3799 9.87126 11.6534 10.0276 11.8753 10.0276C12.204 10.0276 12.4703 10.294 12.4703 10.6226C12.4703 10.9512 12.204 11.2176 11.8753 11.2176C11.3561 11.2176 10.8146 10.9739 10.2506 10.4866C9.68936 10.9739 9.14204 11.2176 8.60868 11.2176C8.07532 11.2176 7.53367 10.9739 6.98375 10.4866C6.41982 10.973 5.87566 11.2162 5.35128 11.2162C4.8269 11.2162 4.28232 10.973 3.71755 10.4866C3.15872 10.9696 2.61829 11.2132 2.09625 11.2175C1.74096 11.2204 1.48035 10.9512 1.48035 10.6226C1.48035 10.3193 1.73368 10.0217 2.07535 10.0276C2.28098 10.0312 2.55559 9.891 2.83924 9.66878C3.03612 9.51453 3.19112 9.35885 3.27137 9.265C3.51169 8.98398 3.94743 8.9879 4.18265 9.2732C4.25898 9.36576 4.408 9.52021 4.59853 9.67316C4.84544 9.87137 5.151 10.0281 5.35128 10.0275C5.55156 10.0269 5.82346 9.88956 6.10554 9.66868C6.30262 9.51436 6.45788 9.35859 6.53834 9.26464C6.77861 8.98413 7.21374 8.98801 7.44897 9.27277C7.52553 9.36545 7.67485 9.51999 7.86563 9.67304C8.11276 9.8713 8.40957 10.0281 8.61833 10.0275C8.82708 10.0269 9.09041 9.88921 9.37211 9.66866C9.56925 9.51432 9.72457 9.35852 9.80508 9.26456C10.0453 8.98424 10.4801 8.98802 10.7154 9.27248ZM9.0842 3.85466C9.29715 4.13982 9.45277 4.42167 9.55616 4.65367L11.8198 4.25468C12.3054 4.16919 12.6671 4.67235 12.46 5.09754L10.8993 7.5519C10.7476 7.78967 10.548 7.84935 10.3584 7.82781C10.1689 7.80628 10.1031 7.73206 10.0029 7.73206C9.90268 7.73206 9.41365 8.74221 8.57338 8.74221C8.0132 8.74221 7.46816 8.45123 6.93825 7.86926C6.32708 8.45123 5.75639 8.74221 5.22616 8.74221C4.69594 8.74221 4.17487 8.4958 3.66295 8.00296C3.15999 8.60302 2.63079 8.90305 2.07535 8.90305C1.77201 8.90305 1.48498 8.67929 1.48498 8.38268L1.48035 7.16189C1.48035 6.57028 1.8802 6.05908 2.44336 5.91012L3.35571 5.7373C3.60866 5.68143 3.7334 5.29033 3.64315 4.36007L3.58672 3.90442C3.54253 3.60485 3.71755 3.29627 4.08708 3.22917L6.88094 2.81012C7.78224 2.66527 8.51983 3.09892 9.0842 3.85466ZM7.16033 3.97591L4.83195 4.32026C4.87599 4.81456 4.85588 5.1807 4.80581 5.49C7.15447 5.07639 8.3288 4.86958 8.3288 4.86958C7.89496 4.1513 7.51201 3.95925 7.16033 3.97591Z" fill="#1A1C1F"/>
</g>
<defs>
<clipPath id="clip0_2214_6678">
<rect width="14" height="14" fill="white"/>
</clipPath>
</defs>
</svg>

<svg xmlns="http://www.w3.org/2000/svg" width="14" height="14" fill="none"><g clip-path="url(#a)"><path fill="#1A1C1F" fill-rule="evenodd" d="M10.715 9.272q.29.3.418.401c.247.198.52.355.742.355a.595.595 0 1 1 0 1.19q-.778 0-1.624-.731-.843.73-1.642.73-.8 0-1.625-.73-.846.73-1.633.73t-1.633-.73q-.84.724-1.622.73a.594.594 0 1 1-.02-1.19c.205.004.48-.136.763-.358.197-.154.352-.31.432-.404a.595.595 0 0 1 .912.008c.076.093.225.247.416.4.246.198.552.355.752.354.2 0 .472-.137.755-.358.197-.155.352-.31.432-.404a.595.595 0 0 1 .911.008c.077.092.226.247.417.4.247.198.544.355.752.354.21 0 .472-.138.754-.358.197-.155.353-.31.433-.404a.595.595 0 0 1 .91.007m-1.63-5.417c.212.285.368.567.471.799l2.264-.4a.595.595 0 0 1 .64.844L10.9 7.552c-.152.238-.352.297-.542.276-.19-.022-.255-.096-.355-.096s-.59 1.01-1.43 1.01q-.84 0-1.635-.873-.916.873-1.712.873t-1.563-.739q-.754.9-1.588.9c-.303 0-.59-.224-.59-.52L1.48 7.162c0-.592.4-1.103.963-1.252l.913-.173c.253-.056.377-.447.287-1.377l-.056-.456a.587.587 0 0 1 .5-.675l2.794-.419c.901-.145 1.639.289 2.203 1.045m-1.925.12-2.328.345c.044.495.024.86-.026 1.17l3.523-.62c-.434-.719-.817-.91-1.169-.894" clip-rule="evenodd"/></g><defs><clipPath id="a"><path fill="#fff" d="M0 0h14v14H0z"/></clipPath></defs></svg>
